X:67
T: I'll gang nae mair to yon toun
T: the Eight Men of Moidart
R: reel
M: 2/4
L: 1/8
K:A
%transposed from F
|: (f/g/) \
| "A"a/g/f/e/ ae | c2 (Ae/d/) | ce Ae | "E7"cB B(fg) \
| "A"a/g/f/e/ ae | c2 (Ac) | ce "E7"B>d | "A"cA A :|
|: e \
| "A"cA eA | "D"fA "A"eA | cA e/f/e/c/ | "D"dB "E7"d(e/d/)\
| "A"cA eA | "D"fA "A"ec | "D"df "E"B>d | "A"cA A :|
